lib/svg/gist-secret.svg

<svg xmlns="http://www.w3.org/2000/svg" width="14" height="16" viewBox="0 0 14 16"><path d="M8 10.5L9 14H5l1-3.5L5.25 9h3.5L8 10.5zM10 6H4L2 7h10l-2-1zM9 2L7 3 5 2 4 5h6L9 2zm4.03 7.75L10 9l1 2-2 3h3.22c.45 0 .86-.31.97-.75l.56-2.28c.14-.53-.19-1.08-.72-1.22zM4 9l-3.03.75c-.53.14-.86.69-.72 1.22l.56 2.28c.11.44.52.75.97.75H5l-2-3 1-2z"/></svg>

<?xml version="1.0" encoding="UTF-8" standalone="no"?>
<svg width="14px" height="16px" viewBox="0 0 14 16" version="1.1" xmlns="http://www.w3.org/2000/svg" xmlns:xlink="http://www.w3.org/1999/xlink">
    <!-- Generator: Sketch 3.8.3 (29802) - http://www.bohemiancoding.com/sketch -->
    <title>gist-secret</title>
    <desc>Created with Sketch.</desc>
    <defs></defs>
    <g id="Octicons" stroke="none" stroke-width="1" fill="none" fill-rule="evenodd">
        <g id="gist-secret" fill="#000000">
            <path d="M8,10.5 L9,14 L5,14 L6,10.5 L5.25,9 L8.75,9 L8,10.5 L8,10.5 Z M10,6 L4,6 L2,7 L12,7 L10,6 L10,6 Z M9,2 L7,3 L5,2 L4,5 L10,5 L9,2 L9,2 Z M13.03,9.75 L10,9 L11,11 L9,14 L12.22,14 C12.67,14 13.08,13.69 13.19,13.25 L13.75,10.97 C13.89,10.44 13.56,9.89 13.03,9.75 L13.03,9.75 Z M4,9 L0.97,9.75 C0.44,9.89 0.11,10.44 0.25,10.97 L0.81,13.25 C0.92,13.69 1.33,14 1.78,14 L5,14 L3,11 L4,9 L4,9 Z" id="Shape"></path>
        </g>
    </g>
</svg>
